X:1
T:J.S.BACH
T:Preludio I
T:1893-G.Schirmer, Inc
T:1893-G.Schirmer, Inc
Z:1893-G.Schirmer, Inc
%%score { ( 1 2 ) | ( 3 4 5 ) }
L:1/8
M:4/4
K:C
V:1 treble nm="Piano"
V:2 treble 
V:3 bass 
V:4 bass 
V:5 bass 
V:1
"^Allegro." z (!1!G/!2!c/)"^legato." !4!e/G/c/e/ z (G/c/) e/G/c/e/ | %1
 z (!1!G/!3!c/) !5!f/A/d/f/ z (A/d/) f/A/d/f/ | z !1!G/!3!d/"^cresc." !5!f/G/d/f/ z G/d/ f/G/d/f/ | %3
 z G/c/ e/G/c/e/ z G/c/ e/G/c/e/ | z A/e/ a/A/e/a/ z A/e/ a/A/e/a/ | %5
 z !1!^F/!2!A/ !5!d/F/A/d/ z F/A/ d/F/A/d/ | z G/d/ g/G/d/g/ z !1!G/!3!d/ g/G/d/g/ | %7
 z E/G/ c/E/G/c/ z E/G/ c/E/G/c/ | z E/G/ c/E/G/c/ z E/G/ c/E/G/c/ | %9
 z D/^F/ c/D/F/c/ z D/F/ c/D/F/c/ | z D/G/ B/D/G/B/ z D/G/ B/D/G/B/ | %11
 z E/G/ ^c/E/G/c/ z E/G/ c/E/G/c/ | z D/A/ d/D/A/d/ z D/A/ d/D/A/d/ | %13
 z D/F/ B/D/F/B/ z D/F/ B/D/F/B/ | z C/G/ c/C/G/c/ z C/G/ c/C/G/c/ | %15
 z A,/C/ F/A,/C/F/ z A,/C/ F/A,/C/F/ | z A,/C/ F/A,/C/F/ z A,/C/ F/A,/C/F/ | %17
!pp! z G,/B,/ F/G,/B,/F/ z G,/B,/ F/G,/B,/F/ | z G,/C/ E/G,/C/E/ z G,/C/ E/G,/C/E/ | %19
 z _B,/C/ E/B,/C/E/ z B,/C/ E/B,/C/E/ | z A,/C/ E/A,/C/E/ z A,/C/ E/A,/C/E/ | %21
 z A,/C/ _E/A,/C/E/ z A,/C/ E/A,/C/E/ | z B,/C/ _E/B,/C/E/ z B,/C/ E/B,/C/E/ | %23
 z B,/C/ D/B,/C/D/ z B,/C/ D/B,/C/D/ | z G,/B,/ D/G,/B,/D/ z G,/B,/ D/G,/B,/D/ | %25
 z G,/C/ E/G,/C/E/ z G,/C/ E/G,/C/E/ | z G,/C/ F/G,/C/F/ z G,/C/ F/G,/C/F/ | %27
 z G,/B,/ F/G,/B,/F/ z G,/B,/ F/G,/B,/F/ | z A,/C/ ^F/A,/C/F/ z A,/C/ F/A,/C/F/ | %29
!ff! z G,/C/ G/G,/C/G/ z G,/C/ G/G,/C/G/ | z G,/C/ F/G,/C/F/ z G,/C/ F/G,/C/F/ | %31
 z G,/B,/ F/G,/B,/F/ z G,/B,/ F/G,/B,/F/ | z G,/_B,/ E/G,/B,/E/ z G,/B,/ E/G,/B,/E/ | %33
"^calando" z x (C/F/)C/A,/ x4 | z (G/B/) d/f/d/!2!B/ !5!d/!4!B/!2!G/!4!B/ !1!D/!3!F/E/D/ | %35
 !fermata![EGc]8 |] %36
V:2
 z/ !1!E3/2- E2 z/ E3/2- E2 | z/ !2!D3/2- D2 z/ D3/2- D2 | z/ !2!D3/2- D2 z/ D3/2- D2 | %3
 z/ !1!E3/2- E2 z/ E3/2- E2 | z/ E3/2- E2 z/ E3/2- E2 | z/ !1!D3/2- D2 z/ D3/2- D2 | %6
 z/ D3/2- D2 z/ D3/2- D2 | x8 | x8 | x8 | x8 | x8 | x8 | x8 | x8 | x8 | x8 | x8 | x8 | x8 | x8 | %21
 x8 | x8 | x8 | x8 | x8 | x8 | x8 | x8 | x8 | x8 | x8 | x8 | x8 | x8 | x8 |] %36
V:3
!p! C4 C4 | C4 C4 | B,4 B,4 | !3!C4 C4 |!f! C4 C4 |!p! C4 C4 |!f! B,4 B,4 | %7
!p! z/ !1!C3/2- C2 z/ C3/2- C2 |!pp! z/ C3/2- C2 z/ C3/2- C2 | z/ !2!A,3/2- A,2 z/ A,3/2- A,2 | %10
 z/ !1!B,3/2- B,2 z/ B,3/2-"^cresc." B,2 | z/ !1!_B,3/2- B,2 z/ B,3/2- B,2 | %12
 z/ !1!A,3/2- A,2 z/ A,3/2- A,2 | z/ !1!_A,3/2- A,2 z/"^dimin." A,3/2- A,2 | %14
 z/ G,3/2- G,2 z/ G,3/2- G,2 |!p! z/ !1!F,3/2- F,2 z/ F,3/2- F,2 | z/ F,3/2- F,2 z/ F,3/2- F,2 | %17
 z/ !2!D,3/2- D,2 z/ D,3/2- D,2 | z/ E,3/2- E,2 z/ E,3/2- E,2 | z/ G,3/2- G,2 z/ G,3/2- G,2 | %20
 z/ F,3/2- F,2 z/"^dimin." F,3/2- F,2 | z/ C,3/2- C,2 z/ C,3/2- C,2 | %22
!pp! z/ !2!_E,3/2- E,2 z/ E,3/2- E,2 | z/ F,3/2- F,2 z/ F,3/2- F,2 | %24
"^cresc." z/ F,3/2- F,2 z/ F,3/2- F,2 | z/ E,3/2- E,2 z/ E,3/2- E,2 | z/ D,3/2- D,2 z/ D,3/2- D,2 | %27
 z/ E,3/2- E,2 z/ E,3/2- E,2 |!f! z/ _E,3/2- E,2 z/ E,3/2- E,2 | %29
 z/ E,3/2- E,2 z/"^dimin." E,3/2- E,2 | z/ D,3/2- D,2 z/ D,3/2- D,2 | %31
!p! z/ D,3/2- D,2 z/ D,3/2- D,2 |!pp! z/ C,3/2- C,2 z/ C,3/2- C,2 | %33
 x F,/A,/ x2 !4!C/!2!A,/!1!F,/!4!A,/ F,/D,/F,/D,/ | z/ B,,3/2- B,,2- B,,4 | !fermata![C,,C,]8 |] %36
V:4
 x8 | x8 | x8 | x8 | x8 | x8 | x8 | !2!B,4 B,4 | A,4 A,4 | !5!D,4 D,4 | !3!G,4 G,4 | !2!G,4 G,4 | %12
 !3!F,4 F,4 | !2!F,4 F,4 | !3!E,4 E,4 | !2!E,4 E,4 | D,4 D,4 | !5!G,,4 G,,4 | C,4 C,4 | C,4 C,4 | %20
 F,,4 F,,4 | !4!^F,,4 F,,4 | !5!G,,4 G,,4 | _A,,4 A,,4 | G,,4 G,,4 | G,,4 G,,4 | G,,4 G,,4 | %27
 G,,4 G,,4 | G,,4 G,,4 | G,,4 G,,4 | G,,4 G,,4 | G,,4 G,,4 | C,,4 C,,4 | z/ C,3/2- C,2- C,4 | %34
 C,,4- C,,4 | x8 |] %36
V:5
 x8 | x8 | x8 | x8 | x8 | x8 | x8 | x8 | x8 | x8 | x8 | x8 | x8 | x8 | x8 | x8 | x8 | x8 | x8 | %19
 x8 | x8 | x8 | x8 | x8 | x8 | x8 | x8 | x8 | x8 | x8 | x8 | x8 | x8 | C,,4- C,,4 | x8 | x8 |] %36

